src/Assets/icons/logo.svg

<svg width="160" height="28" viewBox="0 0 160 28" fill="none" xmlns="http://www.w3.org/2000/svg">
<path d="M3.07304 27.5229C4.85216 27.5229 5.80238 26.6422 6.46955 24.3721L7.54107 21.1822H16.8208L17.8721 24.3721C18.5393 26.5835 19.5704 27.5229 21.3495 27.5229C23.2702 27.5229 24.5236 26.427 24.5236 24.7244C24.5236 24.0394 24.3417 23.2566 23.9778 22.1607L17.8923 4.84121C16.7804 1.65129 15.2439 0.398806 12.3326 0.398806C9.42128 0.398806 7.84433 1.67086 6.75259 4.84121L0.646955 22.1607C0.181956 23.4719 0 24.2156 0 24.8614C0 26.427 1.25347 27.5229 3.07304 27.5229ZM8.91585 16.505L12.0495 6.38724H12.373L15.4663 16.505H8.91585Z" fill="#272D3D"/>
<path d="M38.4493 24.1373V11.3385H38.7122L48.093 24.9397C49.4678 26.8967 50.3776 27.5033 51.8736 27.5033C53.9156 27.5033 55.0073 26.2508 55.0073 23.9024V3.76485C55.0073 1.65129 53.8347 0.398806 51.8736 0.398806C49.9328 0.398806 48.8006 1.65129 48.8006 3.76485V16.4071H48.5378L39.2378 2.98205C37.9035 1.10333 37.0543 0.398806 35.5785 0.398806C33.3748 0.398806 32.2628 1.69043 32.2628 4.1954V24.1373C32.2628 26.2313 33.4152 27.5033 35.3763 27.5033C37.3374 27.5033 38.4493 26.2508 38.4493 24.1373Z" fill="#272D3D"/>
<path d="M63.5148 15.7026C63.5148 23.3153 68.0232 27.8947 75.6856 27.8947C82.4989 27.8947 87.0882 23.9024 87.0882 18.0119V16.3875C87.0882 13.9021 85.9156 12.7866 83.2469 12.7866H78.2937C76.5145 12.7866 75.5643 13.589 75.5643 15.0568C75.5643 16.5441 76.5347 17.366 78.2937 17.366H80.7804V18.5011C80.7804 20.9474 78.8395 22.5912 75.9484 22.5912C72.2285 22.5912 70.1865 20.145 70.1865 15.683V12.454C70.1865 7.93328 72.188 5.5653 76.0091 5.5653C78.6171 5.5653 80.1334 7.09176 81.771 8.67694C82.3573 9.24447 82.9639 9.49888 83.7523 9.49888C85.3495 9.49888 86.4615 8.4421 86.4615 6.89606C86.4615 5.35003 85.2686 3.667 83.4491 2.39495C81.4273 0.927197 78.6576 0.105255 75.5239 0.105255C68.0839 0.105255 63.5148 4.74336 63.5148 12.1408V15.7026Z" fill="#272D3D"/>
<path d="M98.8506 27.5033C100.973 27.5033 102.166 26.2508 102.166 24.0199V3.88228C102.166 1.67086 100.953 0.398806 98.8102 0.398806C96.6672 0.398806 95.4744 1.65129 95.4744 3.88228V24.0199C95.4744 26.2313 96.7076 27.5033 98.8506 27.5033Z" fill="#272D3D"/>
<path d="M111.664 23.6089C111.664 26.016 113.019 27.3076 115.546 27.3076H127.96C129.597 27.3076 130.689 26.3096 130.689 24.744C130.689 23.1979 129.597 22.1803 127.98 22.1803H118.275V16.231H127.575C129.011 16.231 129.981 15.3112 129.981 13.8826C129.981 12.4735 129.011 11.495 127.575 11.495H118.275V5.72186H128.061C129.597 5.72186 130.689 4.68465 130.689 3.17775C130.689 1.65129 129.597 0.594506 128.061 0.594506H115.546C113.019 0.594506 111.664 1.9057 111.664 4.29325V23.6089Z" fill="#272D3D"/>
<path d="M137.781 21.8084C137.781 22.9044 138.428 24.0394 139.601 25.1158C141.481 26.8379 144.857 27.8947 148.658 27.8947C155.572 27.8947 160 24.5091 160 19.2448C160 15.1938 157.513 12.7475 152.378 11.7494L148.537 10.9471C145.969 10.4578 144.797 9.4206 144.797 7.95285C144.797 6.26982 146.333 5.19347 148.779 5.19347C150.862 5.19347 152.499 5.97627 153.915 7.48316C154.764 8.26597 155.633 8.6378 156.502 8.6378C158.059 8.6378 159.11 7.6593 159.11 6.23068C159.11 5.03691 158.484 3.86271 157.291 2.80592C155.431 1.10333 152.237 0.105255 148.699 0.105255C142.229 0.105255 138.105 3.35388 138.105 8.48124C138.105 12.5714 140.551 15.0568 145.524 16.0744L149.325 16.9159C152.237 17.5226 153.45 18.4424 153.45 19.9297C153.45 21.7693 151.893 22.7869 149.002 22.7869C146.96 22.7869 144.958 21.965 143.3 20.4581C142.189 19.4992 141.36 19.1469 140.389 19.1469C138.954 19.1469 137.781 20.2428 137.781 21.8084Z" fill="#272D3D"/>
</svg>

<svg xmlns="http://www.w3.org/2000/svg" width="160" height="28" fill="#272d3d" xmlns:v="https://vecta.io/nano"><path d="M3.073 27.523c1.779 0 2.729-.881 3.397-3.151l1.072-3.19h9.28l1.051 3.19c.667 2.211 1.698 3.151 3.477 3.151 1.921 0 3.174-1.096 3.174-2.799 0-.685-.182-1.468-.546-2.564L17.892 4.841C16.78 1.651 15.244.399 12.333.399s-4.488 1.272-5.58 4.442L.647 22.161C.182 23.472 0 24.216 0 24.861c0 1.566 1.253 2.662 3.073 2.662zm5.843-11.018L12.05 6.387h.323l3.093 10.118h-6.55zm29.533 7.632V11.339h.263l9.381 13.601c1.375 1.957 2.285 2.564 3.781 2.564 2.042 0 3.134-1.252 3.134-3.601V3.765c0-2.114-1.173-3.366-3.134-3.366-1.941 0-3.073 1.252-3.073 3.366v12.642h-.263l-9.3-13.425C37.904 1.103 37.054.399 35.579.399c-2.204 0-3.316 1.292-3.316 3.797v19.942c0 2.094 1.152 3.366 3.114 3.366s3.073-1.252 3.073-3.366zm25.066-8.434c0 7.613 4.508 12.192 12.171 12.192 6.813 0 11.403-3.992 11.403-9.883v-1.624c0-2.485-1.173-3.601-3.841-3.601h-4.953c-1.779 0-2.729.802-2.729 2.27 0 1.487.97 2.309 2.729 2.309h2.487v1.135c0 2.446-1.941 4.09-4.832 4.09-3.72 0-5.762-2.446-5.762-6.908v-3.229c0-4.521 2.002-6.889 5.823-6.889 2.608 0 4.124 1.526 5.762 3.112.586.568 1.193.822 1.981.822 1.597 0 2.709-1.057 2.709-2.603s-1.193-3.229-3.012-4.501C81.427.927 78.658.105 75.524.105c-7.44 0-12.009 4.638-12.009 12.036v3.562zm35.336 11.8c2.122 0 3.315-1.252 3.315-3.483V3.882c0-2.211-1.213-3.483-3.356-3.483s-3.336 1.252-3.336 3.483V24.02c0 2.211 1.233 3.483 3.376 3.483zm12.813-3.894c0 2.407 1.355 3.699 3.882 3.699h12.414c1.637 0 2.729-.998 2.729-2.564 0-1.546-1.092-2.564-2.709-2.564h-9.705v-5.949h9.3c1.436 0 2.406-.92 2.406-2.348 0-1.409-.97-2.388-2.406-2.388h-9.3V5.722h9.786c1.536 0 2.628-1.037 2.628-2.544 0-1.526-1.092-2.583-2.628-2.583h-12.515c-2.527 0-3.882 1.311-3.882 3.699V23.61zm26.117-1.801c0 1.096.647 2.231 1.82 3.307 1.88 1.722 5.256 2.779 9.057 2.779 6.914 0 11.342-3.386 11.342-8.65 0-4.051-2.487-6.497-7.622-7.495l-3.841-.802c-2.568-.489-3.74-1.527-3.74-2.994 0-1.683 1.536-2.759 3.982-2.759 2.083 0 3.72.783 5.136 2.29.849.783 1.718 1.155 2.587 1.155 1.557 0 2.608-.979 2.608-2.407 0-1.194-.626-2.368-1.819-3.425-1.86-1.703-5.054-2.701-8.592-2.701-6.47 0-10.594 3.249-10.594 8.376 0 4.09 2.446 6.576 7.419 7.593l3.801.841c2.912.607 4.125 1.526 4.125 3.014 0 1.84-1.557 2.857-4.448 2.857-2.042 0-4.044-.822-5.702-2.329-1.111-.959-1.94-1.311-2.911-1.311-1.435 0-2.608 1.096-2.608 2.662z"/></svg>
